X: 2667
T: Bank Of Ireland, The
R: reel
M: 4/4
K: Dmixolydian
|:AB|c2AB cABG|EGDG EGAB|c2AB cBAG|Add^c dfed|
cAAB cABG|EGDG EGAB|c2AB cBAG|Add^c d2:|
K:Dmaj
|:de|f2df e2ec|dfed cAA2|fedf efge|afge d2cd|
eaag efge|dfed =cAGB|Addc defg|afge d2:|

